packages/ui-icons/src/Basic/16/Home-internet_16.svg

<svg xmlns="http://www.w3.org/2000/svg" viewBox="0 0 20 20"><path d="M8 9a1 1 0 1 1-1-1 1 1 0 0 1 1 1Zm2-1a1 1 0 1 0 1 1 1 1 0 0 0-1-1Zm8-3.1V13a2 2 0 0 1-2 2h-5.48v2H14v1H6v-1h3.48v-2H4a2 2 0 0 1-2-2V4.9a2 2 0 0 1 2-2h12a2 2 0 0 1 2 2Zm-1 0a1 1 0 0 0-1-1H4a1 1 0 0 0-1 1V13a1 1 0 0 0 1 1h12a1 1 0 0 0 1-1ZM13 8a1 1 0 1 0 1 1 1 1 0 0 0-1-1Z"/></svg>

<svg id="ready" xmlns="http://www.w3.org/2000/svg" viewBox="0 0 20 20"><title>Megaicons_work_16_1.8_cp</title><path d="M8,9A1,1,0,1,1,7,8,1,1,0,0,1,8,9Zm2-1a1,1,0,1,0,1,1A1,1,0,0,0,10,8Zm8-3.1V13a2,2,0,0,1-2,2H10.52v2H14v1H6V17H9.48V15H4a2,2,0,0,1-2-2V4.9a2,2,0,0,1,2-2H16A2,2,0,0,1,18,4.9Zm-1,0a1,1,0,0,0-1-1H4a1,1,0,0,0-1,1V13a1,1,0,0,0,1,1H16a1,1,0,0,0,1-1ZM13,8a1,1,0,1,0,1,1A1,1,0,0,0,13,8Z"/></svg>
